X: 241
T: Ku laope
%%abc-version 2.0
%%abcx-abcm2ps-target-version 5.9.1 (29 Sep 2008)
%%abc-creator hum2abc beta
%%abcx-conversion-date 2013/10/02 07:52:29
%%abc-edited-by Helmut Schaffrath
%%humdrum-veritas 2212608824
%%humdrum-veritas-data 3081495427
%%continueall 1
%%barnumbers 0
L: 1/16
M: 2/4
K: G
e d2 d B B2 d [I:setbarnb 1]| 
A2 E GA4 | 
e d2 d B B2 d | 
A2 E GA4 | 
e d2 d B B2 d | 
A2 A2 d3 F | 
A2 A A d2 F E | 
D2> E2 G3 A | 
d2 d B A B A B | 
A B A G E2 z G | 
E2 z G E D C2 | 
D8 |]  



